cypex/img/main/strengthsMobile__decor.svg

<svg width="360" height="875" viewBox="0 0 360 875" fill="none" xmlns="http://www.w3.org/2000/svg">
<path opacity="0.2" d="M178.58 364.522L178.08 364.522L178.08 364.524L178.58 364.522ZM178.857 426.24L179.357 426.24L179.357 426.238L178.857 426.24ZM178.857 483.036C177.384 483.036 176.19 484.23 176.19 485.702C176.19 487.175 177.384 488.369 178.857 488.369C180.33 488.369 181.524 487.175 181.524 485.702C181.524 484.23 180.33 483.036 178.857 483.036ZM227.636 218.304L227.636 218.804L227.636 218.804L227.636 218.304ZM397.366 492.376C395.894 492.376 394.7 493.57 394.7 495.043C394.7 496.516 395.894 497.709 397.366 497.709C398.839 497.709 400.033 496.516 400.033 495.043C400.033 493.57 398.839 492.376 397.366 492.376ZM57.5026 129.2L57.5026 128.7H57.5026L57.5026 129.2ZM82.4985 734.293C81.0257 734.293 79.8318 735.487 79.8318 736.96C79.8318 738.433 81.0257 739.627 82.4984 739.627C83.9712 739.627 85.1651 738.433 85.1651 736.96C85.1651 735.487 83.9712 734.293 82.4985 734.293ZM34.9348 426.24L34.9348 425.74L34.9348 426.24ZM70.0421 426.24L70.0421 425.74L70.0421 426.24ZM272.766 218.304L272.766 217.804L272.766 218.304ZM-280.55 129.2L-280.55 128.7L-280.55 129.2ZM791.254 830L791.754 830L791.254 830ZM791.254 492.604L791.754 492.604L791.254 492.604ZM619.507 266.304L620.007 266.304L619.507 266.304ZM571.507 218.304L571.507 217.804L571.507 218.304ZM178.08 364.524L178.357 426.242L179.357 426.238L179.08 364.519L178.08 364.524ZM178.357 426.24L178.357 485.702L179.357 485.702L179.357 426.24L178.357 426.24ZM178.08 73.0934L178.08 364.522L179.08 364.522L179.08 73.0934L178.08 73.0934ZM178.08 73.0934L178.08 170.304L179.08 170.304L179.08 73.0934L178.08 73.0934ZM619.007 266.304L619.007 396.604L620.007 396.604L620.007 266.304L619.007 266.304ZM178.08 8.77604e-05L178.08 50.5894L179.08 50.5894L179.08 8.78041e-05L178.08 8.77604e-05ZM178.08 50.5894L178.08 73.0934L179.08 73.0934L179.08 50.5894L178.08 50.5894ZM-409.05 257.2L-409.05 827.198L-408.05 827.198L-408.05 257.2L-409.05 257.2ZM178.08 73.0934L178.08 81.2003L179.08 81.2003L179.08 73.0934L178.08 73.0934ZM226.58 218.804L227.636 218.804L227.636 217.804L226.58 217.804L226.58 218.804ZM227.636 218.804L571.507 218.804L571.507 217.804L227.636 217.804L227.636 218.804ZM227.636 218.804L272.766 218.804L272.766 217.804L227.636 217.804L227.636 218.804ZM320.266 266.304L320.266 279.274L321.266 279.274L321.266 266.304L320.266 266.304ZM396.866 355.875L396.866 495.043L397.866 495.043L397.866 355.875L396.866 355.875ZM667.507 445.104L743.254 445.104L743.254 444.104L667.507 444.104L667.507 445.104ZM790.754 492.604L790.754 830L791.754 830L791.754 492.604L790.754 492.604ZM839.254 878.5L963 878.5L963 877.5L839.254 877.5L839.254 878.5ZM-456.55 874.698L-619 874.698L-619 875.698L-456.55 875.698L-456.55 874.698ZM130.58 128.7L57.5026 128.7L57.5026 129.7L130.58 129.7L130.58 128.7ZM57.5026 128.7L-280.55 128.7L-280.55 129.7L57.5026 129.7L57.5026 128.7ZM57.5026 129.7L70.0411 129.7L70.0411 128.7L57.5026 128.7L57.5026 129.7ZM117.541 177.2L117.541 378.24L118.541 378.24L118.541 177.2L117.541 177.2ZM70.0421 425.74C58.4432 425.74 46.2734 425.74 34.9348 425.74L34.9348 426.74C46.2734 426.74 58.4432 426.74 70.0421 426.74L70.0421 425.74ZM-13.5505 474.24L-13.5505 516.388L-12.5505 516.388L-12.5505 474.24L-13.5505 474.24ZM81.9985 611.936L81.9985 736.96L82.9985 736.96L82.9985 611.936L81.9985 611.936ZM34.724 564.662C60.833 564.662 81.9985 585.827 81.9985 611.936L82.9985 611.936C82.9985 585.275 61.3852 563.662 34.724 563.662L34.724 564.662ZM-13.5505 516.388C-13.5505 543.049 8.06275 564.662 34.724 564.662L34.724 563.662C8.61503 563.662 -12.5505 542.496 -12.5505 516.388L-13.5505 516.388ZM34.9348 425.74C8.14883 425.74 -13.5505 447.455 -13.5505 474.24L-12.5505 474.24C-12.5505 448.006 8.70152 426.74 34.9348 426.74L34.9348 425.74ZM117.541 378.24C117.541 404.474 96.2756 425.74 70.0421 425.74L70.0421 426.74C96.8279 426.74 118.541 405.026 118.541 378.24L117.541 378.24ZM70.0411 129.7C96.2747 129.7 117.541 150.967 117.541 177.2L118.541 177.2C118.541 150.415 96.8269 128.7 70.0411 128.7L70.0411 129.7ZM359.066 318.075C379.943 318.075 396.866 334.998 396.866 355.875L397.866 355.875C397.866 334.446 380.495 317.075 359.066 317.075L359.066 318.075ZM320.266 279.274C320.266 300.703 337.637 318.075 359.066 318.075L359.066 317.075C338.19 317.075 321.266 300.151 321.266 279.274L320.266 279.274ZM272.766 218.804C298.999 218.804 320.266 240.071 320.266 266.304L321.266 266.304C321.266 239.519 299.552 217.804 272.766 217.804L272.766 218.804ZM178.08 81.2003C178.08 107.434 156.813 128.7 130.58 128.7L130.58 129.7C157.365 129.7 179.08 107.986 179.08 81.2003L178.08 81.2003ZM-408.05 257.2C-408.05 186.784 -350.967 129.7 -280.55 129.7L-280.55 128.7C-351.519 128.7 -409.05 186.232 -409.05 257.2L-408.05 257.2ZM790.754 830C790.754 856.786 812.468 878.5 839.254 878.5L839.254 877.5C813.02 877.5 791.754 856.234 791.754 830L790.754 830ZM619.007 396.604C619.007 423.39 640.722 445.104 667.507 445.104L667.507 444.104C641.274 444.104 620.007 422.838 620.007 396.604L619.007 396.604ZM743.254 445.104C769.487 445.104 790.754 466.371 790.754 492.604L791.754 492.604C791.754 465.819 770.04 444.104 743.254 444.104L743.254 445.104ZM620.007 266.304C620.007 239.519 598.293 217.804 571.507 217.804L571.507 218.804C597.741 218.804 619.007 240.071 619.007 266.304L620.007 266.304ZM-409.05 827.198C-409.05 853.432 -430.317 874.698 -456.55 874.698L-456.55 875.698C-429.765 875.698 -408.05 853.984 -408.05 827.198L-409.05 827.198ZM178.08 170.304C178.08 197.09 199.794 218.804 226.58 218.804L226.58 217.804C200.346 217.804 179.08 196.538 179.08 170.304L178.08 170.304Z" fill="url(#paint0_linear_74_1594)"/>
<defs>
<linearGradient id="paint0_linear_74_1594" x1="-375.615" y1="878" x2="-341.071" y2="-48.616" gradientUnits="userSpaceOnUse">
<stop stop-color="#E5FF5D"/>
<stop offset="1" stop-color="#5DFFFF"/>
</linearGradient>
</defs>
</svg>

<svg width="360" height="875" fill="none" xmlns="http://www.w3.org/2000/svg"><path opacity=".2" d="M178.58 364.522h-.5v.002l.5-.002Zm.277 61.718h.5v-.002l-.5.002Zm0 56.796a2.667 2.667 0 1 0 0 5.333 2.667 2.667 0 0 0 0-5.333Zm48.779-264.732v.5-.5Zm169.73 274.072a2.667 2.667 0 1 0 .001 5.333 2.667 2.667 0 0 0-.001-5.333ZM57.503 129.2v-.5.5Zm24.996 605.093a2.667 2.667 0 1 0 0 5.334 2.667 2.667 0 0 0 0-5.334ZM34.935 426.24v-.5.5Zm35.107 0v-.5.5Zm202.724-207.936v-.5.5ZM-280.55 129.2v-.5.5ZM791.254 830h.5-.5Zm0-337.396h.5-.5Zm-171.747-226.3h.5-.5Zm-48-48v-.5.5ZM178.08 364.524l.277 61.718 1-.004-.277-61.719-1 .005Zm.277 61.716v59.462h1V426.24h-1Zm-.277-353.147v291.429h1V73.093h-1Zm0 0v97.211h1v-97.21h-1Zm440.927 193.211v130.3h1v-130.3h-1ZM178.08 0v50.59h1V0h-1Zm0 50.59v22.503h1V50.59h-1ZM-409.05 257.2v569.998h1V257.2h-1ZM178.08 73.093V81.2h1v-8.107h-1Zm48.5 145.711h1.056v-1h-1.056v1Zm1.056 0h343.871v-1H227.636v1Zm0 0h45.13v-1h-45.13v1Zm92.63 47.5v12.97h1v-12.97h-1Zm76.6 89.571v139.168h1V355.875h-1Zm270.641 89.229h75.747v-1h-75.747v1Zm123.247 47.5V830h1V492.604h-1Zm48.5 385.896H963v-1H839.254v1Zm-1295.804-3.802H-619v1h162.45v-1ZM130.58 128.7H57.503v1h73.077v-1Zm-73.077 0H-280.55v1H57.503v-1Zm0 1H70.04v-1H57.503v1Zm60.038 47.5v201.04h1V177.2h-1ZM70.042 425.74H34.935v1h35.107v-1Zm-83.593 48.5v42.148h1V474.24h-1ZM82 611.936V736.96h1V611.936h-1Zm-47.275-47.274c26.109 0 47.275 21.165 47.275 47.274h1c0-26.661-21.614-48.274-48.275-48.274v1Zm-48.274-48.274c0 26.661 21.613 48.274 48.274 48.274v-1c-26.109 0-47.274-21.166-47.274-47.274h-1Zm48.485-90.648c-26.786 0-48.486 21.715-48.486 48.5h1c0-26.234 21.253-47.5 47.486-47.5v-1Zm82.606-47.5c0 26.234-21.265 47.5-47.499 47.5v1c26.786 0 48.499-21.714 48.499-48.5h-1Zm-47.5-248.54c26.234 0 47.5 21.267 47.5 47.5h1c0-26.785-21.714-48.5-48.5-48.5v1Zm289.025 188.375c20.877 0 37.8 16.923 37.8 37.8h1c0-21.429-17.371-38.8-38.8-38.8v1Zm-38.8-38.801c0 21.429 17.371 38.801 38.8 38.801v-1c-20.876 0-37.8-16.924-37.8-37.801h-1Zm-47.5-60.47c26.233 0 47.5 21.267 47.5 47.5h1c0-26.785-21.714-48.5-48.5-48.5v1ZM178.08 81.2c0 26.234-21.267 47.5-47.5 47.5v1c26.785 0 48.5-21.714 48.5-48.5h-1Zm-586.13 176c0-70.416 57.083-127.5 127.5-127.5v-1c-70.969 0-128.5 57.532-128.5 128.5h1ZM790.754 830c0 26.786 21.714 48.5 48.5 48.5v-1c-26.234 0-47.5-21.266-47.5-47.5h-1ZM619.007 396.604c0 26.786 21.715 48.5 48.5 48.5v-1c-26.233 0-47.5-21.266-47.5-47.5h-1Zm124.247 48.5c26.233 0 47.5 21.267 47.5 47.5h1c0-26.785-21.714-48.5-48.5-48.5v1Zm-123.247-178.8c0-26.785-21.714-48.5-48.5-48.5v1c26.234 0 47.5 21.267 47.5 47.5h1ZM-409.05 827.198c0 26.234-21.267 47.5-47.5 47.5v1c26.785 0 48.5-21.714 48.5-48.5h-1Zm587.13-656.894c0 26.786 21.714 48.5 48.5 48.5v-1c-26.234 0-47.5-21.266-47.5-47.5h-1Z" fill="url(#a)"/><defs><linearGradient id="a" x1="-375.615" y1="878" x2="-341.071" y2="-48.616" gradientUnits="userSpaceOnUse"><stop stop-color="#E5FF5D"/><stop offset="1" stop-color="#5DFFFF"/></linearGradient></defs></svg>
